X:870
T: Where Can She Be Off To
C: BB
R: hornpipe %fling
Q: 1/8=330
M: 4/4
L: 1/8
K: G
"G"DGGA "Em7"Bdce|"G"dBAG "F"A=FCF|"G"DGGA "Em7"Bdce|"G"dedB "D"(3ABA "G"G2 :|
"G"g2 dg bagf|"F"=f2 cf agfe|"G"g2 dg bagf|"Em7"ecdB "D"(3ABA "G"G2 :|
%%%%%%%%%%%%%%%%%%%%%%%%%%%%%%%%%%%%%%%%%%%
